!!!!SEGMENT: pl-kk--kk-i-88--004-007_golabek-jakub--missa-4ta-agnus-dei.krn
!!!cenid: 17xx:2596
!!!COM: Gołąbek, Jakub
!!!COM-rismID: pe30008748
!!!CDT: 1739-1789/03/30
!!!CNT: Polish
!!!OPR: Missa 4ta
!!!OTL: Agnus Dei
!!!OMV: 007
!!!PDT:
!!!AGN: Sacred; Mass
!!!YEC: Copyright 2022 Narodowy Instytut Fryderyka Chopina (https://polishscores.org)
!!!YEM: License CC-BY-4.0 (https://creativecommons.org/licenses/by/4.0)
!!!SMS-siglum: PL-Kk
!!!SMS-shelfmark: Kk.I.88
!!!SMS-variant:
!!!SMS-altvar:
!!!SMS-shelfwork: 004-007 M
!!!NIFC-rismSourceID: 1001164072
!!!NIFC-rismChildID: 1001164083
!!!NIFC-islandoraID:
!!!URL-pdf-islandora: https://repozytorium.nifc.pl/islandora/object/pl-kk%3A3086/datastream/PDF/view
!!!URL-scan: https://polish.musicsources.pl/pl/lokalizacje/galeria/rekopisy/6148-missa/4 @EN{Scan on Polish Music Sources Website} @PL{Skany w portalu Dziedzictwo Muzyki Polskiej w otwartym dostępie}
!!!IIIF:
!!!ONB-nifc: UWAGA: C - f. 8r-9v; A - f. 16r-17v; T - f. 24r-25v; B - f. 37r-39v; B rip - f. 37r-39v. Proszę uwzględniać B rip. Części Mszy: 1. Kyrie, 2. Christe, 3. Et in terra, 4. Sanctus, 5, Benedictus, 6. Osanna, 7. Agnus Dei.
!!!AIN: 1 alto 2 bass 1 soprn 1 tenor
!!!key:
**kern	**text	**kern	**kern	**text	**kern	**text	**kern	**text
*part5	*part5	*part4	*part3	*part3	*part2	*part2	*part1	*part1
*staff5	*staff5	*staff4	*staff3	*staff3	*staff2	*staff2	*staff1	*staff1
*I"Baſso	*	*I"Baſso	*I"Tenore	*	*I"Alto	*	*I"Canto	*
*I'B rip	*	*I'B	*I'T	*	*I'A	*	*I'S	*
*Ibass	*	*Ibass	*Itenor	*	*Ialto	*	*Isoprn	*
*ICvox	*	*ICvox	*ICvox	*	*ICvox	*	*ICvox	*
*clefF4	*	*clefF4	*clefC4	*	*clefC3	*	*clefC1	*
*k[b-e-]	*	*k[b-e-]	*k[b-e-]	*	*k[b-e-]	*	*k[b-e-]	*
*B-:	*	*B-:	*B-:	*	*B-:	*	*B-:	*
*M3/4	*	*M3/4	*M3/4	*	*M3/4	*	*M3/4	*
=1	=1	=1	=1	=1	=1	=1	=1	=1
*	*	*	*2\right	*	*	*	*2\right	*
!LO:TX:t=P:problem:mixed beam	!	!LO:TX:t=P:problem:brak Agnus Dei	!	!	!	!	!	!
8G/L	A-	2.ryy	2d\	A-	4g\	A-	2b-\	A-
8GG/	.	.	.	.	.	.	.	.
8BB-/	.	.	.	.	4d\	.	.	.
8D/J	.	.	.	.	.	.	.	.
4F#X\	-gnus	.	4d\	-gnus	4c\	-gnus	4a\	-gnus
=2	=2	=2	=2	=2	=2	=2	=2	=2
8G\L	De-	2.ryy	8d\L	De-	8B-\L	De-	8g\L	De-
!LO:SIC:v:s=8F#J	!	!	!	!	!	!	!	!
8F\J	.	.	8c\J	.	8c\J	.	8a\J	.
4G\	-i	.	4B-\	-i	4d\	-i	4b-\	-i
4G\	qui	.	4d\	qui	4g\	qui	4b-\	qui
=3	=3	=3	=3	=3	=3	=3	=3	=3
4D\	tol-	2.ryy	4d\	tol-	4g\	tol-	4b-\	tol-
4D\	-lis	.	4d\	-lis	4f#X\	-lis	4a\	-lis
4F#X\	pec-	.	4d\	pec-	4a\	pec-	4cc\	pec-
=4	=4	=4	=4	=4	=4	=4	=4	=4
!LO:SIC:v:s=4F#	!	!	!	!	!	!	!	!
4F\	-ca-	2.ryy	4d\	-ca-	4a\	-ca-	4cc\	-ca-
4G\	-ta	.	4d\	-ta	4g\	-ta	4b-\	-ta
4G\	pec-	.	4d\	pec-	4b-\	pec-	4dd\	pec-
!LO:LB:g=original	!	!	!	!	!	!	!	!
=5	=5	=5	=5	=5	=5	=5	=5	=5
4G\	-ca-	2.ryy	2d\	-ca-	4b-\	-ca-	4dd\	-ca-
!LO:SIC:v:s=4F#	!	!	!	!	!	!	!	!
4F\	.	.	.	.	4a\	.	4cc\	.
4G\	-ta	.	4d\	-ta	4g\	-ta	4b-\	-ta
=6	=6	=6	=6	=6	=6	=6	=6	=6
4D\	mun-	2.ryy	4d\	mun-	4g\	mun-	4b-\	mun-
4D\	-di	.	4d\	-di	4f#X\	-di	4a\	-di
4r	.	.	4r	.	4r	.	4r	.
!	!	!	!LO:LB:g=original	!	!LO:LB:g=original	!	!LO:LB:g=original	!
=7	=7	=7	=7	=7	=7	=7	=7	=7
*	*	*	*	*	*2\right	*	*	*
!LO:TX:t=P:problem:mixed beam	!	!	!	!	!	!	!	!
8B-/L	A-	2.ryy	2B-\	A-	2fn\	A-	2dd\	A-
8BB-/	.	.	.	.	.	.	.	.
8D/	.	.	.	.	.	.	.	.
8F/J	.	.	.	.	.	.	.	.
4A\	-gnus	.	4e-\	-gnus	4e-\	-gnus	4cc\	-gnus
=8	=8	=8	=8	=8	=8	=8	=8	=8
4B-\	De-	2.ryy	8f\L	De-	8d\L	De-	8b-\L	De-
.	.	.	8d\J	.	8e-\J	.	8cc\J	.
4BB-/	-i	.	4B-\	-i	4f\	-i	4dd\	-i
8BB-/L	qui	.	4B-\	qui	4f\	qui	4dd\	qui
8D/J	.	.	.	.	.	.	.	.
=9	=9	=9	=9	=9	=9	=9	=9	=9
4F\	tol-	2.ryy	4B-\	tol-	4f\	tol-	4dd\	tol-
4F\	-lis	.	4A\	-lis	4f\	-lis	8cc\L	-lis
.	.	.	.	.	.	.	8dd\J	.
8F\L	pec-	.	8A\L	pec-	4f\	pec-	4ee-\	pec-
8A\J	.	.	8c\J	.	.	.	.	.
=10	=10	=10	=10	=10	=10	=10	=10	=10
4B-\	-ca-	2.ryy	4c\	-ca-	4f\	-ca-	4ee-\	-ca-
4BB-/	-ta	.	4B-\	-ta	4f\	-ta	4dd\	-ta
4B-\	pec-	.	4d\	pec-	4b-\	pec-	4ff\	pec-
=11	=11	=11	=11	=11	=11	=11	=11	=11
4F\	-ca-	2.ryy	4d\	-ca-	4b-\	-ca-	4ff\	-ca-
4A\	.	.	4c\	.	4a\	.	4ee-\	.
4B-\	-ta	.	4B-\	-ta	4b-\	-ta	4dd\	-ta
=12	=12	=12	=12	=12	=12	=12	=12	=12
4F\	mun-	2.ryy	4F/	mun-	4b-\	mun-	4dd\	mun-
4F\	-di	.	4F/	-di	4a\	-di	4cc\	-di
4r	.	.	4r	.	4r	.	4r	.
=13	=13	=13	=13	=13	=13	=13	=13	=13
*2\right	*	*	*	*	*	*	*	*
2F#X\	mi-	2.ryy	2A\	mi-	2e-X\	mi-	2cc\	mi-
4F#\	-se-	.	4A\	-se-	4e-\	-se-	4cc\	-se-
!	!	!	!	!	!LO:LB:g=original	!	!LO:LB:g=original	!
=14	=14	=14	=14	=14	=14	=14	=14	=14
4G\	-re-	2.ryy	4G/	-re-	4d\	-re-	4b-\	-re-
4A\	.	.	4d\	.	4f#X\	.	4cc\	.
4B-\	-re	.	4B-\	-re	4g\	-re	4dd\	-re
!LO:LB:g=original	!	!	!	!	!	!	!	!
=15	=15	=15	=15	=15	=15	=15	=15	=15
4C/	no-	2.ryy	4c\	no-	4a\	no-	4ee-\	no-
2D/	.	.	4B-\	.	4g\	.	2dd\	.
.	.	.	4A\	.	4f#X\	.	.	.
=16	=16	=16	=16	=16	=16	=16	=16	=16
2GG/	-bis	2.ryy	2B-\	-bis	2g\	-bis	2dd\	-bis
4r	.	.	4r	.	4r	.	4r	.
=17	=17	=17	=17	=17	=17	=17	=17	=17
2F#X\	mi-	2.ryy	2A\	mi-	2e-X\	mi-	2cc\	mi-
4F#\	-se-	.	4A\	-se-	4e-\	-se-	4cc\	-se-
=18	=18	=18	=18	=18	=18	=18	=18	=18
4G\	-re-	2.ryy	4G/	-re-	4d\	-re-	4b-\	-re-
4A\	.	.	4d\	.	4f#X\	.	4cc\	.
4B-\	-re	.	4B-\	-re	4g\	-re	4dd\	-re
=19	=19	=19	=19	=19	=19	=19	=19	=19
4C/	no-	2.ryy	4c\	no-	4a\	no-	4ee-\	no-
2D/	.	.	4B-\	.	4g\	.	2dd\	.
!	!	!	!	!	!LO:SIC:v:s=4f#	!	!	!
.	.	.	4A\	.	4f\	.	.	.
=20	=20	=20	=20	=20	=20	=20	=20	=20
2GG/	-bis	2.ryy	2B-\	-bis	2g\	-bis	2dd\	-bis
4r	.	.	4r	.	4r	.	4r	.
!LO:LB:g=original	!	!	!LO:LB:g=original	!	!LO:LB:g=original	!	!LO:LB:g=original	!
=21||	=21||	=21||	=21||	=21||	=21||	=21||	=21||	=21||
8G\L	A-	2.ryy	8B-\L	A-	2g\	A-	8dd\L	A-
8A\	.	.	8c\	.	.	.	8cc\	.
8B-\	.	.	8d\	.	.	.	8b-\	.
8A\J	.	.	8c\J	.	.	.	8a\J	.
8B-\L	-gnus	.	8d\L	-gnus	4g\	-gnus	8b-\L	-gnus
8G\J	.	.	8B-\J	.	.	.	8dd\J	.
=22	=22	=22	=22	=22	=22	=22	=22	=22
4d\	De-	2.ryy	4B-\	De-	4g\	De-	4dd\	De-
4D/	-i	.	4A\	-i	4f#X\	-i	4dd\	-i
4D/	qui	.	4A\	qui	4f#\	qui	4dd\	qui
=23	=23	=23	=23	=23	=23	=23	=23	=23
8D\L	tol-	2.ryy	8F#X/L	tol-	4d\	tol-	4a\	tol-
!LO:SIC:v:s=8EJ	!	!	!	!	!	!	!	!
8E-\J	.	.	8G/J	.	.	.	.	.
8F#X\L	-lis	.	8A/L	-lis	4d\	-lis	4a\	-lis
!LO:SIC:v:s=8EJ	!	!	!	!	!	!	!	!
8E-\J	.	.	8G/J	.	.	.	.	.
8F#\L	pec-	.	8A/L	pec-	4d\	pec-	4a\	pec-
8D\J	.	.	8F#/J	.	.	.	.	.
=24	=24	=24	=24	=24	=24	=24	=24	=24
4G\	-ca-	2.ryy	4B-\	-ca-	4g\	-ca-	4dd\	-ca-
4GG/	-ta	.	4B-\	-ta	4g\	-ta	4dd\	-ta
4D\	pec-	.	4A\	pec-	4f#X\	pec-	4dd\	pec-
!	!	!	!LO:LB:g=original	!	!	!	!	!
=25	=25	=25	=25	=25	=25	=25	=25	=25
8G\L	-ca-	2.ryy	8B-\L	-ca-	2g\	-ca-	2dd\	-ca-
8F#X\	.	.	8A\	.	.	.	.	.
8G\	.	.	8B-\	.	.	.	.	.
8A\J	.	.	8c\J	.	.	.	.	.
8B-\L	-ta	.	8d\L	-ta	4g\	-ta	4dd\	-ta
8c\J	.	.	8en\J	.	.	.	.	.
=26	=26	=26	=26	=26	=26	=26	=26	=26
4d\	mun-	2.ryy	4d\	mun-	4f#X\	mun-	4a\	mun-
4D/	-di	.	4d\	-di	4f#\	-di	4a\	-di
4D/	pec-	.	4d\	pec-	4f#\	pec-	4a\	pec-
!LO:LB:g=original	!	!	!	!	!LO:LB:g=original	!	!LO:LB:g=original	!
=27	=27	=27	=27	=27	=27	=27	=27	=27
4F#X\	-ca-	2.ryy	2.c\	-ca-	4a\	-ca-	2.a\	-ca-
4D\	.	.	.	.	4f#X\	.	.	.
4F#\	.	.	.	.	4a\	.	.	.
=28	=28	=28	=28	=28	=28	=28	=28	=28
4G\	.	2.ryy	4B-\	.	4g\	.	2dd\	.
4D\	.	.	4A\	.	4f#X\	.	.	.
4GG/	-ta	.	4B-\	-ta	4g\	-ta	4dd\	-ta
=29	=29	=29	=29	=29	=29	=29	=29	=29
2C/	mun-	2.ryy	2A\	mun-	2.g\	mun-	2ee-X\	mun-
4C#X/	.	.	4B-\	.	.	.	4een\	.
=30	=30	=30	=30	=30	=30	=30	=30	=30
2D/	-di	2.ryy	2A\	-di	2f#X\	-di	2dd\	-di
!LO:TX:b:t=Dona nobis ut Kyrie	!	!	!LO:TX:b:t=Dona nobis ut Kyrie	!	!LO:TX:b:t=Dona nobis ut Kyrie	!	!LO:TX:b:t=Dona nobis ut Kyrie	!
4r	.	.	4r	.	4r	.	4r	.
==	==	==	==	==	==	==	==	==
*-	*-	*-	*-	*-	*-	*-	*-	*-
!!!system-decoration: [(s1,s2,s3,s4)]s5
!!!ENC: Andrzej Borzym
!!!END: 2024-03-07
!!!EED: Andrzej Borzym
!!!END: 2025-02-17
